X:101
T:Le départ du compagnon
R:Chanson
O:France
D:voir la version de Malicorne intitulée "La conduite"
B:Le livre des Chansons (Henri Davenson) n°101
Z:<anamnese@caramail.com> -- http://anamnese.fr.st
M:6/8
L:1/8
Q:1/4=100
K:Bb
G | A3 G F G | [M:3/8] A3 | [M:6/8] D G A c2 B | G3F z G |
    A3 G F G | [M:3/8] A3 | [M:6/8] D G A (B-G) A | G3-G z z |
  d2c d =e c | [M:3/8] A3 | [M:6/8] D G B (Ac3/2) B/ | [M:3/8] (AG) F |
[M:6/8] G2 A G F G | [M:3/8] A3 | [M:6/8] D G A (BG) A | G3-G z z ||
W:Partons, chers compagnons, Le devoir nous l'ordonne.
W:Voici le vrai moment Qu'il nous faut battre aux champs :
W:L'hiver est écoulé, La neige et la froidure ;
W:On voit dès à présent Revenir le printemps. /.../

